brandFactory_export/3.Masa/Monumento_3Masa.svg

<?xml version="1.0" encoding="UTF-8"?>
<svg width="24px" height="24px" viewBox="0 0 24 24" version="1.1" xmlns="http://www.w3.org/2000/svg" xmlns:xlink="http://www.w3.org/1999/xlink">
    <title>3.Masa/Monumento_3Masa</title>
    <g id="Symbols" stroke="none" stroke-width="1" fill="none" fill-rule="evenodd">
        <g id="3.Masa/Monumento_3Masa" fill="#5CB615" fill-rule="nonzero">
            <path d="M6.51596639,5.40168067 C6.23361345,5.40168067 6.00504202,5.17647059 6.00504202,4.89747899 L6.00504202,0.504201681 C6.00504202,0.228571429 6.23361345,0 6.51596639,0 L8.76806723,0 C9.05042017,0 9.2789916,0.225210084 9.2789916,0.504201681 L9.2789916,1.88571429 L10.3647059,1.88571429 L10.3647059,0.504201681 C10.3647059,0.228571429 10.5932773,0 10.8756303,0 L12.8285714,0 C13.1109244,0 13.3394958,0.225210084 13.3394958,0.504201681 L13.3394958,1.97647059 L14.4655462,1.95966387 L14.4655462,0.504201681 C14.4655462,0.228571429 14.6941176,0 14.9764706,0 L17.3193277,0 C17.6016807,0 17.8302521,0.225210084 17.8302521,0.504201681 L17.8302521,4.90084034 C17.8302521,5.17983193 17.6016807,5.40504202 17.3193277,5.40504202 L16.9731092,5.40504202 L16.9731092,5.39831933 L7.18151261,5.39831933 L7.18151261,5.40504202 L6.51596639,5.40504202 L6.51596639,5.40168067 Z M6.7512605,17.0857143 C6.7512605,16.8067227 6.97983193,16.5815126 7.26218487,16.5815126 L8.2,16.5815126 C8.18655462,16.5243697 8.17983193,16.4672269 8.18319328,16.4033613 L9.15798319,8.07394958 L8.63361345,8.07394958 C8.3512605,8.07394958 8.12268908,7.8487395 8.12268908,7.5697479 L8.12268908,6.19831933 L15.7932773,6.19831933 L15.7932773,7.5697479 C15.7932773,7.84537815 15.5647059,8.07394958 15.2823529,8.07394958 L14.7579832,8.07394958 L15.7327731,16.4033613 C15.7394958,16.4638655 15.7327731,16.5243697 15.7159664,16.5815126 L16.5428571,16.5815126 C16.8252101,16.5815126 17.0537815,16.8067227 17.0537815,17.0857143 L17.0537815,19.5932773 L6.74789916,19.5932773 L6.74789916,17.0857143 L6.7512605,17.0857143 Z M18.2806723,20.3966387 C18.5630252,20.3966387 18.7915966,20.6218487 18.7915966,20.9008403 L18.7915966,23.1193277 C18.7915966,23.3983193 18.5630252,23.6235294 18.2806723,23.6235294 L5.52436975,23.6235294 C5.24201681,23.6235294 5.01344538,23.3983193 5.01344538,23.1193277 L5.01344538,20.9008403 C5.01344538,20.6252101 5.24201681,20.3966387 5.52436975,20.3966387 L18.2806723,20.3966387 Z" id="Monumento_3Masa"></path>
        </g>
    </g>
</svg>

<svg width="24" height="24" viewBox="0 0 24 24" xmlns="http://www.w3.org/2000/svg"><path d="M6.516 5.402a.507.507 0 01-.511-.505V.504A.51.51 0 016.516 0h2.252c.282 0 .511.225.511.504v1.382h1.086V.504a.51.51 0 01.51-.504h1.954c.282 0 .51.225.51.504v1.472l1.127-.016V.504a.51.51 0 01.51-.504h2.343c.283 0 .511.225.511.504v4.397a.507.507 0 01-.51.504h-.347v-.007H7.182v.007h-.666v-.003zm.235 11.684c0-.28.229-.504.511-.504H8.2a.618.618 0 01-.017-.179l.975-8.33h-.524a.507.507 0 01-.511-.503V6.198h7.67V7.57a.51.51 0 01-.51.504h-.525l.975 8.33c.006.06 0 .12-.017.178h.827c.282 0 .51.225.51.504v2.507H6.749v-2.507h.003zm11.53 3.31c.282 0 .51.226.51.505v2.218a.507.507 0 01-.51.505H5.524a.507.507 0 01-.51-.505v-2.218a.51.51 0 01.51-.504h12.757z" fill="#5CB615" fill-rule="nonzero"/></svg>
